!! 00016] TT[TB
!! Zh. Ch. 1-3199, 590696), J 3494)
!!!OTL: Fang feng zheng
!!!ARE: Asia, China,ÿJiangsu
!! Ethnic Group: Han
!! MM,
!!!SCT: C0701
!!!YEM: Copyright 1995, estate of Helmut Schaffrath.
**kern
*ICvox
*Ivox
*M2/4
*k[f#c#g#d#]
*E:
{16cc#
16ee
16cc#
16b
8g#
16f#
16g#
=1
4.b
8ee
=2
16cc#
16ee
16cc#
16b
8g#
16f#
16g#
=3
2b}
=4
{8.b
16cc#
4ee
=5
8.ff#
16ee
8cc#
8b
=6
16cc#
16ee
16cc#
16b
8g#
16f#
16g#
=7
2b}
=8
{8.b
16cc#
4ee
=9
8ff#
8ee
8cc#
8b
=10
8g#
8b
16cc#
16b
16cc#
16ee
=11
2b}
=12
{8ee
8ee
8cc#
16cc#
16b
=13
16g#
16b
16cc#
16g#
4b}
=14
{8ee
16ee
16ee
8cc#
16cc#
16b
=15
16g#
16b
16cc#
16g#
4b}
=16
{8f#
4f#
16g#
16b
=17
8f#
4f#
16g#
16b
=18
8.f#
16g#
8b
8ee
=19
8cc#
8b
8r
8f#
=20
8.g#
16b
16f#
16e
8c#
=21
2e}
=22
{8ee
8ee
16cc#
16ee
16cc#
16b
=23
16g#
16b
16cc#
16g#
4b}
=24
{8ee
8ee
16cc#
16ee
16cc#
16b
=25
16g#
16b
16cc#
16g#
4b}
=26
{16g#
16b
16cc#
16g#
4b}
=27
{16g#
16b
16cc#
16g#
4b}
=28
{8f#
8g#
8f#
8e
=29
8f#
8g#
8f#
8e
=30
16f#
16g#
16f#
16e
16f#
16g#
16f#
16e
=31
16f#
16g#
16f#
16e
16f#
16g#
16f#
16e
=32
2f#}
=33
{8f#
4f#
16g#
16b
=34
8f#
4f#
16g#
16b
=35
8.f#
16g#
8b
8ee
=36
8cc#
8b
8r
8f#
=37
8.g#
16b
16f#
16e
8c#
=38
2e}
==
!!!AGN: Wuge
!!!ONB: ESAC (Essen Associative Code) Database: CHINA
!!!AMT: simple duple
!!!AIN: vox
!!!EED: Helmut Schaffrath
!!!EEV: 1.0
*-
